X:4
T:The Somerset Wassail Verse 2
M:2/2
L:1/8
S:New Oxford Book of Carols #158
K:C
|F2|(F2d2)(c2_B2)|A4G2F2|(F2G2)A2_B2|c6F2|(F2d2c2_B2|A4 (G2F2)|(F2G2)A2_B2|c6c2|
(d2_B2)_e2d2|c6 _B2|(A2F2)G2A2|_B4|A2G2|F4G4|C6CC|F4 (G2A2)|B4A2B2|(c2f2)d2B2|c4(B2A2)|(G2F2) A2G2|F6||

